public/settingsIcon.svg

<?xml version="1.0" encoding="utf-8"?><!-- Uploaded to: SVG Repo, www.svgrepo.com, Generator: SVG Repo Mixer Tools -->
<svg width="800px" height="800px" viewBox="0 0 24 24" fill="none" xmlns="http://www.w3.org/2000/svg">
<path opacity="0.5" fill-rule="evenodd" clip-rule="evenodd" d="M14.2788 2.15224C13.9085 2 13.439 2 12.5 2C11.561 2 11.0915 2 10.7212 2.15224C10.2274 2.35523 9.83509 2.74458 9.63056 3.23463C9.53719 3.45834 9.50065 3.7185 9.48635 4.09799C9.46534 4.65568 9.17716 5.17189 8.69017 5.45093C8.20318 5.72996 7.60864 5.71954 7.11149 5.45876C6.77318 5.2813 6.52789 5.18262 6.28599 5.15102C5.75609 5.08178 5.22018 5.22429 4.79616 5.5472C4.47814 5.78938 4.24339 6.1929 3.7739 6.99993C3.30441 7.80697 3.06967 8.21048 3.01735 8.60491C2.94758 9.1308 3.09118 9.66266 3.41655 10.0835C3.56506 10.2756 3.77377 10.437 4.0977 10.639C4.57391 10.936 4.88032 11.4419 4.88029 12C4.88026 12.5581 4.57386 13.0639 4.0977 13.3608C3.77372 13.5629 3.56497 13.7244 3.41645 13.9165C3.09108 14.3373 2.94749 14.8691 3.01725 15.395C3.06957 15.7894 3.30432 16.193 3.7738 17C4.24329 17.807 4.47804 18.2106 4.79606 18.4527C5.22008 18.7756 5.75599 18.9181 6.28589 18.8489C6.52778 18.8173 6.77305 18.7186 7.11133 18.5412C7.60852 18.2804 8.2031 18.27 8.69012 18.549C9.17714 18.8281 9.46533 19.3443 9.48635 19.9021C9.50065 20.2815 9.53719 20.5417 9.63056 20.7654C9.83509 21.2554 10.2274 21.6448 10.7212 21.8478C11.0915 22 11.561 22 12.5 22C13.439 22 13.9085 22 14.2788 21.8478C14.7726 21.6448 15.1649 21.2554 15.3694 20.7654C15.4628 20.5417 15.4994 20.2815 15.5137 19.902C15.5347 19.3443 15.8228 18.8281 16.3098 18.549C16.7968 18.2699 17.3914 18.2804 17.8886 18.5412C18.2269 18.7186 18.4721 18.8172 18.714 18.8488C19.2439 18.9181 19.7798 18.7756 20.2038 18.4527C20.5219 18.2105 20.7566 17.807 21.2261 16.9999C21.6956 16.1929 21.9303 15.7894 21.9827 15.395C22.0524 14.8691 21.9088 14.3372 21.5835 13.9164C21.4349 13.7243 21.2262 13.5628 20.9022 13.3608C20.4261 13.0639 20.1197 12.558 20.1197 11.9999C20.1197 11.4418 20.4261 10.9361 20.9022 10.6392C21.2263 10.4371 21.435 10.2757 21.5836 10.0835C21.9089 9.66273 22.0525 9.13087 21.9828 8.60497C21.9304 8.21055 21.6957 7.80703 21.2262 7C20.7567 6.19297 20.522 5.78945 20.2039 5.54727C19.7799 5.22436 19.244 5.08185 18.7141 5.15109C18.4722 5.18269 18.2269 5.28136 17.8887 5.4588C17.3915 5.71959 16.7969 5.73002 16.3099 5.45096C15.8229 5.17191 15.5347 4.65566 15.5136 4.09794C15.4993 3.71848 15.4628 3.45833 15.3694 3.23463C15.1649 2.74458 14.7726 2.35523 14.2788 2.15224Z" fill="#C1C7CC"/>
<path d="M15.5227 12C15.5227 13.6569 14.1694 15 12.4999 15C10.8304 15 9.47705 13.6569 9.47705 12C9.47705 10.3431 10.8304 9 12.4999 9C14.1694 9 15.5227 10.3431 15.5227 12Z" fill="#637381"/>
</svg>

<svg class="MuiSvgIcon-root MuiSvgIcon-fontSizeMedium css-mz9m0q" focusable="false" aria-hidden="true" viewBox="0 0 24 24"><path fill="rgb(192, 198, 204)" fill-rule="evenodd" d="M14.279 2.152C13.909 2 13.439 2 12.5 2s-1.408 0-1.779.152a2.008 2.008 0 0 0-1.09 1.083c-.094.223-.13.484-.145.863a1.615 1.615 0 0 1-.796 1.353a1.64 1.64 0 0 1-1.579.008c-.338-.178-.583-.276-.825-.308a2.026 2.026 0 0 0-1.49.396c-.318.242-.553.646-1.022 1.453c-.47.807-.704 1.21-.757 1.605c-.07.526.074 1.058.4 1.479c.148.192.357.353.68.555c.477.297.783.803.783 1.361c0 .558-.306 1.064-.782 1.36c-.324.203-.533.364-.682.556a1.99 1.99 0 0 0-.399 1.479c.053.394.287.798.757 1.605c.47.807.704 1.21 1.022 1.453c.424.323.96.465 1.49.396c.242-.032.487-.13.825-.308a1.64 1.64 0 0 1 1.58.008c.486.28.774.795.795 1.353c.015.38.051.64.145.863c.204.49.596.88 1.09 1.083c.37.152.84.152 1.779.152s1.409 0 1.779-.152a2.008 2.008 0 0 0 1.09-1.083c.094-.223.13-.483.145-.863c.02-.558.309-1.074.796-1.353a1.64 1.64 0 0 1 1.579-.008c.338.178.583.276.825.308c.53.07 1.066-.073 1.49-.396c.318-.242.553-.646 1.022-1.453c.47-.807.704-1.21.757-1.605a1.99 1.99 0 0 0-.4-1.479c-.148-.192-.357-.353-.68-.555c-.477-.297-.783-.803-.783-1.361c0-.558.306-1.064.782-1.36c.324-.203.533-.364.682-.556a1.99 1.99 0 0 0 .399-1.479c-.053-.394-.287-.798-.757-1.605c-.47-.807-.704-1.21-1.022-1.453a2.026 2.026 0 0 0-1.49-.396c-.242.032-.487.13-.825.308a1.64 1.64 0 0 1-1.58-.008a1.615 1.615 0 0 1-.795-1.353c-.015-.38-.051-.64-.145-.863a2.007 2.007 0 0 0-1.09-1.083" clip-rule="evenodd" opacity="0.4" transform-origin="12.499945640563965px 12px" style="transform: rotate(108.855deg); transform-origin: 12.4999px 12px;"></path><path fill="rgb(100, 116, 130)" d="M15.523 12c0 1.657-1.354 3-3.023 3c-1.67 0-3.023-1.343-3.023-3S10.83 9 12.5 9c1.67 0 3.023 1.343 3.023 3"></path></svg>
